icons-common/notification.svg

<svg height="1em" width="auto" viewBox="0 0 105 105" fill="currentColor" xmlns="http://www.w3.org/2000/svg">
    <path d="M70.1917 67.6559C70.1917 69.3175 68.7795 70.8938 66.8378 70.8938H38.9913C37.0496 70.8938 35.6374 69.3601 35.6374 67.6559C35.6374 67.102 35.7698 66.5908 36.0787 66.0369L42.61 55.1302C42.919 54.6615 43.0514 54.065 43.0514 53.5112V42.3062C43.0514 37.0658 47.4644 32.8054 52.8925 32.8054C58.3206 32.8054 62.7336 37.0658 62.7336 42.3062V53.5112C62.7336 54.065 62.866 54.6189 63.1749 55.1302L69.7063 66.0369C70.0152 66.5482 70.1476 67.102 70.1476 67.6559M77.8704 67.6559C77.8704 65.7813 77.3409 63.9493 76.37 62.3303L70.4565 52.4035V42.3062C70.4565 32.9332 62.5571 25.3496 52.8925 25.3496C43.2279 25.3496 35.3285 32.9758 35.3285 42.3062V52.4035L29.415 62.3303C28.4441 63.9493 27.9146 65.7813 27.9146 67.6559C27.9146 73.5353 32.8572 78.3496 38.9913 78.3496H66.8378C72.9278 78.3496 77.9146 73.5779 77.9146 67.6559H77.8704Z"
          />
</svg>

<svg xmlns="http://www.w3.org/2000/svg" width="auto" height="1em" fill="currentColor" viewBox="0 0 105 105">
    <path d="M70.192 67.656c0 1.661-1.412 3.238-3.354 3.238H38.99c-1.941 0-3.354-1.534-3.354-3.238 0-.554.133-1.065.442-1.62L42.61 55.13c.309-.469.441-1.065.441-1.619V42.306c0-5.24 4.413-9.5 9.841-9.5 5.429 0 9.842 4.26 9.842 9.5v11.205c0 .554.132 1.108.44 1.62l6.532 10.906c.31.511.442 1.065.442 1.619m7.722 0c0-1.875-.53-3.707-1.5-5.326l-5.913-9.926V42.306c0-9.373-7.9-16.956-17.564-16.956s-17.565 7.626-17.565 16.956v10.098l-5.913 9.926c-.97 1.62-1.5 3.451-1.5 5.326 0 5.88 4.942 10.694 11.076 10.694h27.847c6.09 0 11.077-4.772 11.077-10.694z"/>
</svg>
